X:1
T: Tersicourante
N:
C:Praetorius
S:(Courante)    4 times
A:
O:
R:
M:6/8
K:D
I:speed 160
%W: A1
% voice 1 (1 lines, 25 notes)
K:D
M:6/8
L:1/16
A2 |d4 A2 d4 e2 f3 g a2 f2 d2 a2 g4 f2 e4 d2 c3 d e2 c2 A2 a2 |g4 f2 e4 d2
%W:
% voice 1 (1 lines, 23 notes)
c3 d e2 c2 A2 a2 e4 f2 g4 f2 e4 d2 c4 A2 |B2 c2 d2 c2 d2 e2 d6d4 a2
%W: A2
% voice 1 (1 lines, 24 notes)
d4 A2 d4 e2 f3 g a2 f2 d2 a2 |g4 f2 e4 d2 c3 d e2 c2 A2 a2 g4 f2 e4 d2
%W:
% voice 1 (1 lines, 23 notes)
c3 d e2 c2 A2 a2 |e4 f2 g4 f2 e4 d2 c4 A2 B2 c2 d2 c2 d2 e2 d6d4 d2 |
%W: B
% voice 1 (1 lines, 21 notes)
c2 A2 e2 c2 A2 e2 c2 A2 e2 c2 A2 e2 f2 g2 a2 ^g2 a2 b2 a6a4 a2 |
%W:
% voice 1 (1 lines, 15 notes)
f2 d2 a2 f2 d2 a2 g6 g4 f2 e4 d2 d2 c4 d6 A6 |
%W: C
% voice 1 (1 lines, 36 notes)
F3 G A2 B2 A2 A2 B2 A2 A2 B2 A2 A2 ^G3 A B2 c2 G2 B2 c2 ^G2 B2 c2 G2 B2 |A3 B c2 d2 c2 c2 d2 c2 c2 d2 c2 A2
%W:
% voice 1 (1 lines, 32 notes)
B3 c d2 e2 d2 B2 e2 d2 B2 e2 d2 B2 |c3 d e2 f2 c2 e2 f2 c2 e2 f2 c2 e2 f3 e d2 c2 d2 c2 d6d4 ||
